X: 1
T:At va'ani (E/C#m)
M:4/4
L:1/8
S:Deborah Jones/Vancouver IFD 1982
Z:Seymour.Shlien@crc.doc.ca
K:E
|: "E"B, E2 F EFGA | B8 | "C#m"cGGF G2 "F#m"AB | "G#"G8 |
"E"B, E2 F EFGA | B8 |1 "D"AFE=D "C"=C2 EF | "E"E8 :|2 "D"AFFA "G#m"G2 GB | "C#m"c8 |
"C#m"G2 cB c2 G2 |"F#"^ABGF "G#m"G2 G2 | "D"=ABGF "E"E2 EG | "F#(m)"F8 |
"C#m"Gc cB c2 "D#"d2 | "G#m"B^A B2-B2 "C7"c2 | "F#7"^ABGF EFAG | "G#"G8 |]
